resources/lib/oojs-ui/themes/mediawiki/images/icons/browser-ltr.svg

<?xml version="1.0" encoding="utf-8"?>
<svg xmlns="http://www.w3.org/2000/svg" width="24" height="24" viewBox="0 0 24 24">
    <path d="M3 6v11c0 1.7 1.3 3 3 3h15v-14h-18zm2.5 1c.8 0 1.5.7 1.5 1.5s-.7 1.5-1.5 1.5-1.5-.7-1.5-1.5.7-1.5 1.5-1.5zm14.5 12h-14c-1.1 0-2-.9-2-2v-6h16v8z"/>
</svg>

<?xml version="1.0" encoding="utf-8"?>
<svg xmlns="http://www.w3.org/2000/svg" width="24" height="24" viewBox="0 0 24 24">
    <path d="M3 6v11c0 1.7 1.3 3 3 3h15V6H3zm2.5 1C6.3 7 7 7.7 7 8.5S6.3 10 5.5 10 4 9.3 4 8.5 4.7 7 5.5 7zM20 19H6c-1.1 0-2-.9-2-2v-6h16v8z"/>
</svg>
